public/images/ai44.svg

<svg width="100" height="100" viewBox="0 0 100 100" fill="none" xmlns="http://www.w3.org/2000/svg">
<path d="M34.6925 67.5828H37.7893V71.8022C37.2797 71.9585 36.7897 72.0757 36.3389 72.1539C35.8685 72.232 35.3785 72.2515 34.8297 72.2515C33.5557 72.2515 32.5757 71.8804 31.8897 71.1185C31.2037 70.3762 30.8509 69.3018 30.8509 67.9344C30.8509 66.5866 31.2429 65.5317 32.0269 64.7699C32.8109 64.008 33.8693 63.6173 35.2413 63.6173C36.1233 63.6173 36.9465 63.7932 37.7305 64.1252L37.2405 65.2582C36.5545 64.9457 35.8685 64.7894 35.1825 64.7894C34.2809 64.7894 33.5753 65.0629 33.0461 65.6294C32.5169 66.1959 32.2621 66.9577 32.2621 67.9344C32.2621 68.9502 32.4973 69.7316 32.9677 70.2786C33.4381 70.806 34.1241 71.0795 35.0061 71.0795C35.4569 71.0795 35.9273 71.0209 36.4369 70.9037V68.7354H34.6925V67.5828Z" fill="#7A7A7A"/>
<path d="M45.3157 68.9502C45.3157 69.9855 45.0413 70.7865 44.5121 71.3725C43.9829 71.9585 43.2381 72.2515 42.2777 72.2515C41.6897 72.2515 41.1605 72.1148 40.7097 71.8413C40.2589 71.5678 39.9061 71.1967 39.6513 70.6888C39.3965 70.1809 39.2789 69.6144 39.2789 68.9502C39.2789 67.9149 39.5533 67.114 40.0825 66.5475C40.6117 65.9615 41.3565 65.688 42.3169 65.688C43.2381 65.688 43.9633 65.981 44.5121 66.567C45.0413 67.1531 45.3157 67.954 45.3157 68.9502ZM40.6705 68.9502C40.6705 70.4153 41.2193 71.1576 42.2973 71.1576C43.3753 71.1576 43.9045 70.4348 43.9045 68.9502C43.9045 67.5047 43.3557 66.7819 42.2777 66.7819C41.7093 66.7819 41.2977 66.9773 41.0429 67.3484C40.8077 67.7196 40.6705 68.2665 40.6705 68.9502Z" fill="#7A7A7A"/>
<path d="M52.5088 68.9502C52.5088 69.9855 52.2344 70.7865 51.7052 71.3725C51.176 71.9585 50.4312 72.2515 49.4708 72.2515C48.8828 72.2515 48.3536 72.1148 47.9028 71.8413C47.452 71.5678 47.0992 71.1967 46.8444 70.6888C46.5896 70.1809 46.472 69.6144 46.472 68.9502C46.472 67.9149 46.7464 67.114 47.2756 66.5475C47.8048 65.9615 48.5496 65.688 49.51 65.688C50.4312 65.688 51.1564 65.981 51.7052 66.567C52.254 67.1531 52.5088 67.954 52.5088 68.9502ZM47.8832 68.9502C47.8832 70.4153 48.432 71.1576 49.51 71.1576C50.588 71.1576 51.1172 70.4348 51.1172 68.9502C51.1172 67.5047 50.5684 66.7819 49.4904 66.7819C48.922 66.7819 48.5104 66.9773 48.2556 67.3484C48.0008 67.7196 47.8832 68.2665 47.8832 68.9502Z" fill="#7A7A7A"/>
<path d="M59.4473 65.7857V66.528L58.3497 66.7233C58.4477 66.8601 58.5261 67.0163 58.6045 67.2117C58.6633 67.407 58.7025 67.6219 58.7025 67.8368C58.7025 68.4814 58.4673 69.0088 58.0165 69.38C57.5657 69.7512 56.9385 69.9465 56.1545 69.9465C55.9585 69.9465 55.7625 69.927 55.6057 69.9074C55.3117 70.0832 55.1745 70.2981 55.1745 70.5325C55.1745 70.6693 55.2333 70.7865 55.3705 70.8646C55.5077 70.9427 55.7625 70.9818 56.1153 70.9818H57.2325C57.9381 70.9818 58.4673 71.1381 58.8397 71.4311C59.2121 71.7241 59.3885 72.1539 59.3885 72.7204C59.3885 73.4432 59.0945 73.9901 58.4869 74.3808C57.8989 74.7715 57.0365 74.9668 55.8997 74.9668C55.0373 74.9668 54.3709 74.8106 53.9201 74.498C53.4693 74.1855 53.2341 73.7557 53.2341 73.1892C53.2341 72.7985 53.3517 72.4664 53.6065 72.2125C53.8613 71.9585 54.1945 71.7632 54.6453 71.6655C54.4689 71.5874 54.3121 71.4702 54.1945 71.2944C54.0769 71.1186 54.0181 70.9427 54.0181 70.7669C54.0181 70.5325 54.0769 70.3372 54.2141 70.1614C54.3513 70.0051 54.5473 69.8293 54.8217 69.673C54.4885 69.5363 54.2141 69.3019 54.0181 68.9893C53.8221 68.6768 53.7045 68.3056 53.7045 67.8758C53.7045 67.1921 53.9201 66.6452 54.3513 66.274C54.7825 65.9029 55.4097 65.7075 56.2133 65.7075C56.3897 65.7075 56.5857 65.7271 56.7817 65.7466C56.9777 65.7661 57.1345 65.8052 57.2325 65.8247H59.4473V65.7857ZM54.4493 73.1306C54.4493 73.4236 54.5865 73.6385 54.8413 73.7948C55.0961 73.951 55.4685 74.0292 55.9585 74.0292C56.7033 74.0292 57.2521 73.9315 57.6049 73.7166C57.9577 73.5018 58.1537 73.2283 58.1537 72.8767C58.1537 72.6032 58.0557 72.4078 57.8597 72.2906C57.6637 72.1734 57.2913 72.1148 56.7621 72.1148H55.7429C55.3509 72.1148 55.0569 72.2125 54.8217 72.3883C54.5473 72.5641 54.4493 72.8181 54.4493 73.1306ZM55.0177 67.8563C55.0177 68.247 55.1157 68.5596 55.3313 68.7744C55.5273 68.9893 55.8409 69.087 56.2133 69.087C56.9973 69.087 57.3893 68.6768 57.3893 67.8368C57.3893 67.4266 57.2913 67.114 57.0953 66.8796C56.8993 66.6647 56.6053 66.5475 56.2133 66.5475C55.8213 66.5475 55.5273 66.6647 55.3313 66.8796C55.1157 67.0945 55.0177 67.4266 55.0177 67.8563Z" fill="#7A7A7A"/>
<path d="M61.9757 72.1343H60.6233V63.2071H61.9757V72.1343Z" fill="#7A7A7A"/>
<path d="M66.6993 72.2515C65.6997 72.2515 64.9352 71.9585 64.3668 71.392C63.818 70.8255 63.524 70.0246 63.524 69.0088C63.524 67.9735 63.7788 67.1531 64.308 66.567C64.8176 65.981 65.5428 65.6685 66.4444 65.6685C67.2872 65.6685 67.9536 65.9224 68.4436 66.4303C68.9336 66.9382 69.1688 67.6414 69.1688 68.54V69.2628H64.9353C64.9549 69.8879 65.1116 70.3567 65.4448 70.6888C65.7584 71.0209 66.2092 71.1772 66.7776 71.1772C67.15 71.1772 67.5028 71.1381 67.836 71.0795C68.1692 71.0013 68.5024 70.8841 68.8748 70.7279V71.8218C68.5416 71.9781 68.2085 72.0953 67.8753 72.1539C67.5225 72.232 67.1305 72.2515 66.6993 72.2515ZM66.4444 66.7038C66.0132 66.7038 65.6604 66.8405 65.4056 67.114C65.1508 67.3875 64.9941 67.7782 64.9353 68.3056H67.836C67.836 67.7782 67.6988 67.3875 67.4636 67.114C67.2088 66.8405 66.8756 66.7038 66.4444 66.7038Z" fill="#7A7A7A"/>
<path d="M4.97885 79.5965C4.19485 79.5965 3.56765 79.8699 3.11685 80.4364C2.66605 80.9834 2.45045 81.7648 2.45045 82.7415C2.45045 83.7573 2.66605 84.5387 3.09725 85.0661C3.52845 85.5935 4.15565 85.8475 4.97885 85.8475C5.33165 85.8475 5.68445 85.8084 6.01765 85.7498C6.35085 85.6716 6.70365 85.5935 7.05645 85.4763V86.6484C6.40965 86.9023 5.66485 87.0195 4.82205 87.0195C3.58725 87.0195 2.64645 86.6484 1.99965 85.9061C1.35285 85.1638 1.01965 84.1089 1.01965 82.722C1.01965 81.8624 1.17645 81.1006 1.49005 80.4364C1.80365 79.7918 2.27405 79.2839 2.88165 78.9323C3.48925 78.5807 4.19485 78.4049 4.99845 78.4049C5.86085 78.4049 6.64485 78.5807 7.37005 78.9323L6.88005 80.0653C6.60565 79.9285 6.29205 79.8113 5.97845 79.7137C5.64525 79.6355 5.31205 79.5965 4.97885 79.5965Z" fill="#7A7A7A"/>
<path d="M10.0553 86.8828H8.70285V77.9946H10.0553V86.8828Z" fill="#7A7A7A"/>
<path d="M17.5816 83.7182C17.5816 84.7535 17.3072 85.5544 16.778 86.1405C16.2488 86.7265 15.504 87 14.5632 87C13.9752 87 13.446 86.8633 12.9952 86.6093C12.5444 86.3358 12.1916 85.9647 11.9564 85.4568C11.7212 84.9489 11.584 84.3824 11.584 83.7182C11.584 82.7024 11.8388 81.9015 12.368 81.3155C12.8972 80.749 13.642 80.456 14.6024 80.456C15.5236 80.456 16.2488 80.749 16.778 81.335C17.3268 81.9211 17.5816 82.722 17.5816 83.7182ZM12.9756 83.7182C12.9756 85.1833 13.5244 85.9061 14.6024 85.9061C15.6804 85.9061 16.2096 85.1833 16.2096 83.7182C16.2096 82.2727 15.6804 81.5499 14.6024 81.5499C14.034 81.5499 13.6224 81.7452 13.3676 82.1164C13.1128 82.4876 12.9756 83.015 12.9756 83.7182Z" fill="#7A7A7A"/>
<path d="M23.5989 86.8828L23.4029 86.0623H23.3441C23.1481 86.3554 22.8933 86.5898 22.5405 86.746C22.1877 86.9219 21.7957 87 21.3645 87C20.6001 87 20.0317 86.8047 19.6397 86.4335C19.2673 86.0623 19.0713 85.4763 19.0713 84.6949V80.5732H20.4237V84.4605C20.4237 84.9489 20.5217 85.3005 20.7177 85.5544C20.9137 85.7889 21.2273 85.9256 21.6585 85.9256C22.2269 85.9256 22.6385 85.7498 22.9129 85.4177C23.1873 85.0856 23.3049 84.5191 23.3049 83.7182V80.5732H24.6573V86.8828H23.5989Z" fill="#7A7A7A"/>
<path d="M28.7145 87C27.9305 87 27.3033 86.707 26.8721 86.1405C26.4213 85.574 26.2057 84.7731 26.2057 83.7378C26.2057 82.7024 26.4213 81.9015 26.8721 81.3155C27.3229 80.7295 27.9501 80.456 28.7341 80.456C29.5573 80.456 30.2041 80.7685 30.6353 81.3741H30.7137C30.6549 80.9248 30.6157 80.5732 30.6157 80.2997V77.9946H31.9681V86.8828H30.9097L30.6745 86.0623H30.5961C30.1649 86.6874 29.5377 87 28.7145 87ZM29.0673 85.9061C29.6161 85.9061 30.0277 85.7498 30.2825 85.4372C30.5373 85.1247 30.6549 84.6168 30.6745 83.9331V83.7378C30.6745 82.9368 30.5373 82.3703 30.2825 82.0383C30.0277 81.7062 29.6161 81.5304 29.0673 81.5304C28.5969 81.5304 28.2245 81.7257 27.9697 82.0969C27.7149 82.4876 27.5777 83.015 27.5777 83.7378C27.5777 84.441 27.6953 84.9684 27.9501 85.3396C28.2049 85.7303 28.5773 85.9061 29.0673 85.9061Z" fill="#7A7A7A"/>
<path d="M42.258 86.8828L41.4152 84.5582H38.2204L37.3972 86.8828H35.9468L39.0828 78.5025H40.5724L43.7084 86.8828H42.258ZM41.0624 83.3861L40.2784 81.1201C40.2196 80.9639 40.1412 80.7294 40.0432 80.3974C39.9452 80.0653 39.8668 79.8309 39.8276 79.6746C39.7296 80.1434 39.5728 80.6513 39.3768 81.2178L38.6124 83.3861H41.0624Z" fill="#7A7A7A"/>
<path d="M44.8257 86.8828V78.5416H46.1977V86.8828H44.8257Z" fill="#7A7A7A"/>
<path d="M56.9972 81.0615C56.9972 81.9406 56.7032 82.6048 56.1348 83.0736C55.5664 83.5424 54.7432 83.7768 53.6848 83.7768H52.8224V86.9023H51.4504V78.5611H53.8612C54.9 78.5611 55.684 78.776 56.2132 79.2058C56.7228 79.5965 56.9972 80.2216 56.9972 81.0615ZM52.8224 82.6048H53.5476C54.2532 82.6048 54.7628 82.4876 55.096 82.2336C55.4292 81.9992 55.586 81.6085 55.586 81.1006C55.586 80.6123 55.4488 80.2606 55.1548 80.0262C54.8608 79.7918 54.41 79.6746 53.7828 79.6746H52.842V82.6048H52.8224Z" fill="#7A7A7A"/>
<path d="M59.8588 86.8828H58.5064V77.9946H59.8588V86.8828Z" fill="#7A7A7A"/>
<path d="M65.7389 86.8828L65.4645 86.0037H65.4253C65.1117 86.3944 64.8177 86.6484 64.5041 86.7851C64.1905 86.9219 63.7985 87 63.3085 87C62.6813 87 62.1913 86.8242 61.8581 86.4921C61.5053 86.16 61.3289 85.6912 61.3289 85.0661C61.3289 84.4215 61.5641 83.9331 62.0541 83.601C62.5441 83.2689 63.2693 83.0931 64.2689 83.054L65.3665 83.015V82.6829C65.3665 82.2727 65.2685 81.9797 65.0921 81.7843C64.8961 81.589 64.6021 81.4913 64.2101 81.4913C63.8769 81.4913 63.5829 81.5304 63.2693 81.628C62.9753 81.7257 62.6813 81.8429 62.4069 81.9601L61.9757 81.0029C62.3285 80.8271 62.7009 80.6904 63.1125 80.5927C63.5241 80.495 63.9161 80.456 64.2689 80.456C65.0725 80.456 65.6801 80.6318 66.0917 80.9834C66.5033 81.335 66.6993 81.882 66.6993 82.6243V86.8828H65.7389ZM63.7397 85.9647C64.2297 85.9647 64.6217 85.8279 64.9157 85.5544C65.2097 85.281 65.3665 84.9098 65.3665 84.4019V83.855L64.5629 83.894C63.9357 83.9136 63.4653 84.0308 63.1713 84.2066C62.8773 84.4019 62.7401 84.6754 62.7401 85.0661C62.7401 85.3396 62.8185 85.574 62.9949 85.7107C63.1517 85.8865 63.4065 85.9647 63.7397 85.9647Z" fill="#7A7A7A"/>
<path d="M70.9524 85.9061C71.2856 85.9061 71.5992 85.8475 71.9324 85.7498V86.7656C71.7756 86.8242 71.5993 86.8828 71.3641 86.9219C71.1289 86.9609 70.8936 86.9805 70.6388 86.9805C69.3648 86.9805 68.7181 86.3163 68.7181 84.9684V81.589H67.8557V81.0029L68.7768 80.5146L69.2277 79.1862H70.0508V80.5927H71.8541V81.6085H70.0508V84.988C70.0508 85.32 70.1293 85.5545 70.2861 85.7107C70.4625 85.8279 70.678 85.9061 70.9524 85.9061Z" fill="#7A7A7A"/>
<path d="M76.3816 81.589H74.8332V86.8828H73.4808V81.589H72.442V80.9639L73.4808 80.5536V80.1434C73.4808 79.4011 73.6572 78.8542 74.01 78.483C74.3628 78.1314 74.892 77.936 75.6172 77.936C76.0876 77.936 76.558 78.0142 77.0088 78.1705L76.656 79.1862C76.3228 79.0886 76.0092 79.03 75.7152 79.03C75.4016 79.03 75.186 79.1276 75.0488 79.3034C74.9116 79.4988 74.8332 79.7723 74.8332 80.1434V80.5536H76.3816V81.589Z" fill="#7A7A7A"/>
<path d="M83.0653 83.7182C83.0653 84.7535 82.7909 85.5544 82.2617 86.1405C81.7325 86.7265 80.9877 87 80.0469 87C79.4589 87 78.9297 86.8633 78.4789 86.6093C78.0281 86.3358 77.6753 85.9647 77.4401 85.4568C77.2049 84.9489 77.0677 84.3824 77.0677 83.7182C77.0677 82.7024 77.3225 81.9015 77.8517 81.3155C78.3809 80.749 79.1257 80.456 80.0861 80.456C81.0073 80.456 81.7325 80.749 82.2617 81.335C82.7909 81.9211 83.0653 82.722 83.0653 83.7182ZM78.4593 83.7182C78.4593 85.1833 79.0081 85.9061 80.0861 85.9061C81.1641 85.9061 81.6933 85.1833 81.6933 83.7182C81.6933 82.2727 81.1641 81.5499 80.0861 81.5499C79.5177 81.5499 79.1061 81.7452 78.8513 82.1164C78.5769 82.4876 78.4593 83.015 78.4593 83.7182Z" fill="#7A7A7A"/>
<path d="M87.8281 80.456C88.1025 80.456 88.3181 80.4755 88.4945 80.5146L88.3573 81.7648C88.1613 81.7257 87.9653 81.6866 87.7693 81.6866C87.2401 81.6866 86.7893 81.8625 86.4561 82.2141C86.1229 82.5657 85.9465 83.015 85.9465 83.5815V86.8828H84.5941V80.5732H85.6525L85.8289 81.6866H85.9073C86.1229 81.3155 86.3973 81.0029 86.7305 80.7881C87.0637 80.5732 87.4361 80.456 87.8281 80.456Z" fill="#7A7A7A"/>
<path d="M95.0017 86.8828H93.6493V82.9954C93.6493 82.5071 93.5512 82.1555 93.3748 81.9211C93.1984 81.6866 92.9044 81.5694 92.5124 81.5694C92.0028 81.5694 91.6109 81.7452 91.3757 82.0773C91.1405 82.4094 91.0033 82.9759 91.0033 83.7573V86.9023H89.6508V80.5927H90.7093L90.9053 81.4132H90.9837C91.1601 81.1201 91.4149 80.8857 91.7481 80.7099C92.0813 80.5536 92.4537 80.456 92.8457 80.456C93.8257 80.456 94.4725 80.7881 94.7861 81.4522H94.8841C95.0801 81.1397 95.3349 80.9053 95.6681 80.7295C96.0013 80.5536 96.3933 80.4755 96.8441 80.4755C97.6085 80.4755 98.1572 80.6709 98.4904 81.042C98.8432 81.4132 99.0001 81.9992 99.0001 82.7806V86.9023H97.6477V83.015C97.6477 82.5266 97.5497 82.175 97.3733 81.9406C97.1969 81.7062 96.9028 81.589 96.5108 81.589C95.9816 81.589 95.6092 81.7452 95.3544 82.0773C95.1192 82.4094 94.9821 82.8978 94.9821 83.5815V86.8828H95.0017Z" fill="#7A7A7A"/>
<path d="M60.8584 14H39.1416C37.75 14 36.476 14.7423 35.79 15.9339L24.9316 34.6869C24.2456 35.8785 24.2456 37.3436 24.9316 38.5352L35.79 57.2882C36.476 58.4798 37.75 59.2221 39.1416 59.2221H60.8584C62.25 59.2221 63.524 58.4798 64.21 57.2882L75.0684 38.5352C75.7544 37.3436 75.7544 35.8785 75.0684 34.6869L64.21 15.9339C63.524 14.7423 62.25 14 60.8584 14Z" fill="#4683ED"/>
<path d="M56.664 25.1737L51.5484 27.4006L49.314 25.1737L44.414 26.8927L40.4548 30.1745L43.0616 32.7726L39.9452 34.0423L37.8872 38.7501L40.69 41.5435L43.336 48.1656L54.41 59.2026H60.8584C62.25 59.2026 63.524 58.4603 64.21 57.2687L73.2456 41.6802L56.664 25.1737Z" fill="#417BDC"/>
<path d="M56.3505 40.6644L57.4677 38.7501H62.1129L63.3281 36.6794L60.3685 31.5419H55.6057L54.0769 29.1001H52.8029V27.7327H54.9785L56.3505 30.1745H59.5649L56.6641 25.1737H50.6861V32.0888H53.1361L53.9985 33.4563H50.6861V36.7771H53.7437L55.3117 34.3744H58.7809L59.6433 35.7418H56.1349L54.5277 38.164H50.6861V44.2783H55.5861L54.7237 45.6457H50.6861V48.1656H56.6641L61.3289 40.137H58.3301L57.0561 42.0319H52.8225V40.6644H56.3505Z" fill="#FEFFFD"/>
<path d="M49.3141 45.6457H45.2765L44.4141 44.2783H49.3141V38.164H45.4725L43.8653 35.7418H40.3569L41.2193 34.3744H44.6885L46.2565 36.7771H49.3141V33.4563H46.0017L46.8641 32.0888H49.3141V25.1737H43.3361L40.4353 30.1745H43.6497L45.0217 27.7327H47.1973V29.1001H45.9233L44.3945 31.5419H39.6317L36.6721 36.6794L37.8873 38.7501H42.5325L43.6497 40.6644H47.1777V42.0319H42.9441L41.6701 40.137H38.6713L43.3361 48.1656H49.3141V45.6457Z" fill="#FEFFFD"/>
</svg>

<svg xmlns="http://www.w3.org/2000/svg" width="100" height="100" fill="none"><path fill="#7A7A7A" d="M34.693 67.583h3.096v4.22c-.51.156-1 .273-1.45.35-.47.079-.96.098-1.51.098-1.273 0-2.253-.37-2.94-1.133-.685-.742-1.038-1.816-1.038-3.184q0-2.02 1.176-3.164c.784-.762 1.842-1.153 3.214-1.153.882 0 1.706.176 2.49.508l-.49 1.133a4.9 4.9 0 0 0-2.059-.469c-.901 0-1.607.274-2.136.84-.53.567-.784 1.329-.784 2.305q0 1.524.706 2.345c.47.527 1.156.8 2.038.8.45 0 .921-.058 1.43-.175v-2.169h-1.743zM45.316 68.95c0 1.035-.275 1.837-.804 2.422q-.795.88-2.234.88c-.588 0-1.117-.137-1.568-.41a2.75 2.75 0 0 1-1.059-1.153c-.255-.508-.372-1.075-.372-1.739 0-1.035.274-1.836.803-2.403.53-.585 1.274-.859 2.235-.859.921 0 1.646.293 2.195.879.53.586.804 1.387.804 2.383m-4.646 0c0 1.465.55 2.208 1.627 2.208 1.078 0 1.608-.723 1.608-2.208 0-1.445-.55-2.168-1.627-2.168-.569 0-.98.195-1.235.566-.235.372-.373.918-.373 1.602M52.509 68.95c0 1.035-.275 1.837-.804 2.422q-.794.88-2.234.88c-.588 0-1.117-.137-1.568-.41a2.75 2.75 0 0 1-1.059-1.153c-.254-.508-.372-1.075-.372-1.739 0-1.035.274-1.836.804-2.403.529-.585 1.274-.859 2.234-.859.921 0 1.646.293 2.195.879s.804 1.387.804 2.383m-4.626 0c0 1.465.549 2.208 1.627 2.208s1.607-.723 1.607-2.208c0-1.445-.549-2.168-1.627-2.168-.568 0-.98.195-1.234.566-.255.372-.373.918-.373 1.602M59.447 65.786v.742l-1.097.195c.098.137.176.293.255.489.058.195.098.41.098.625 0 .644-.236 1.172-.687 1.543-.45.371-1.078.567-1.861.567a5 5 0 0 1-.55-.04c-.293.176-.43.391-.43.626 0 .136.058.254.196.332.137.078.392.117.744.117h1.117c.706 0 1.235.156 1.608.45.372.292.548.722.548 1.288 0 .723-.294 1.27-.901 1.66q-.882.587-2.587.587c-.863 0-1.53-.156-1.98-.469s-.686-.742-.686-1.309c0-.39.118-.723.372-.976.255-.254.588-.45 1.04-.547a1.03 1.03 0 0 1-.452-.372.94.94 0 0 1-.176-.527c0-.234.059-.43.196-.606.137-.156.333-.332.608-.488a1.7 1.7 0 0 1-.804-.684 2.06 2.06 0 0 1-.313-1.113c0-.684.215-1.23.646-1.602.431-.371 1.059-.567 1.862-.567.177 0 .373.02.569.04s.353.058.45.078h2.215zM54.45 73.13c0 .293.138.507.392.664q.382.234 1.117.234c.745 0 1.294-.097 1.647-.312s.549-.489.549-.84q0-.412-.294-.586c-.196-.118-.569-.176-1.098-.176h-1.02c-.391 0-.685.098-.92.273-.275.176-.373.43-.373.743m.569-5.275c0 .391.098.704.313.918.196.215.51.313.882.313.784 0 1.176-.41 1.176-1.25 0-.41-.098-.723-.294-.957-.196-.215-.49-.332-.882-.332s-.686.117-.882.332c-.215.215-.313.547-.313.976M61.976 72.134h-1.353v-8.927h1.353zM66.7 72.252c-1 0-1.765-.293-2.333-.86-.549-.566-.843-1.367-.843-2.383 0-1.035.255-1.856.784-2.442.51-.586 1.235-.898 2.136-.898q1.265 0 2 .761c.49.508.725 1.211.725 2.11v.723h-4.234c.02.625.177 1.094.51 1.426.313.332.764.488 1.333.488.372 0 .725-.039 1.058-.098a6.5 6.5 0 0 0 1.039-.351v1.094a4 4 0 0 1-1 .332c-.353.078-.745.097-1.176.097m-.256-5.548c-.43 0-.784.137-1.038.41-.255.273-.412.664-.47 1.192h2.9c0-.528-.137-.918-.372-1.192-.255-.273-.588-.41-1.02-.41M4.979 79.597c-.784 0-1.411.273-1.862.84-.451.546-.667 1.328-.667 2.305 0 1.015.216 1.797.647 2.324.431.528 1.059.781 1.882.781.353 0 .705-.039 1.039-.097.333-.078.686-.156 1.038-.274v1.172c-.646.254-1.391.371-2.234.371q-1.853 0-2.822-1.113c-.647-.742-.98-1.797-.98-3.184q0-1.29.47-2.286a3.45 3.45 0 0 1 1.392-1.504q.911-.527 2.116-.527c.863 0 1.647.176 2.372.527l-.49 1.133a6 6 0 0 0-.902-.351 4.4 4.4 0 0 0-1-.117M10.055 86.883H8.703v-8.888h1.352zM17.582 83.718c0 1.035-.275 1.836-.804 2.422-.53.587-1.274.86-2.215.86a3.16 3.16 0 0 1-1.568-.39 2.6 2.6 0 0 1-1.039-1.153 4.05 4.05 0 0 1-.372-1.739c0-1.016.255-1.817.784-2.403.53-.566 1.274-.859 2.234-.859q1.383 0 2.176.879c.549.586.804 1.387.804 2.383m-4.606 0c0 1.465.548 2.188 1.626 2.188s1.608-.723 1.608-2.188c0-1.445-.53-2.168-1.608-2.168-.568 0-.98.195-1.234.566-.255.372-.392.899-.392 1.602M23.599 86.883l-.196-.82h-.059a1.84 1.84 0 0 1-.803.683 2.6 2.6 0 0 1-1.177.254c-.764 0-1.332-.195-1.724-.567-.373-.37-.569-.957-.569-1.738v-4.122h1.353v3.888c0 .488.098.84.294 1.093.196.235.51.372.94.372.569 0 .98-.176 1.255-.508s.392-.899.392-1.7v-3.145h1.352v6.31zM28.715 87c-.785 0-1.412-.293-1.843-.86-.45-.566-.666-1.367-.666-2.402s.215-1.837.666-2.422c.45-.587 1.078-.86 1.862-.86.823 0 1.47.313 1.901.918h.079c-.06-.45-.098-.8-.098-1.074v-2.305h1.352v8.888H30.91l-.236-.82h-.078q-.646.936-1.881.937m.352-1.094c.55 0 .96-.156 1.215-.469s.373-.82.392-1.504v-.195c0-.801-.137-1.368-.392-1.7-.254-.332-.666-.508-1.215-.508-.47 0-.843.196-1.097.567-.255.39-.392.918-.392 1.64 0 .704.117 1.231.372 1.603.255.39.627.566 1.117.566M42.258 86.883l-.843-2.325H38.22l-.823 2.325h-1.45l3.136-8.38h1.49l3.135 8.38zm-1.196-3.497-.784-2.266c-.058-.156-.137-.39-.235-.723s-.176-.566-.215-.722c-.098.468-.255.976-.451 1.543l-.765 2.168zM44.826 86.883v-8.341h1.372v8.34zM56.997 81.062c0 .879-.294 1.543-.862 2.012-.569.468-1.392.703-2.45.703h-.863v3.125H51.45v-8.34h2.411q1.559 0 2.352.644c.51.39.784 1.016.784 1.855m-4.175 1.543h.726c.705 0 1.215-.117 1.548-.371.333-.235.49-.625.49-1.133 0-.489-.137-.84-.431-1.075s-.745-.351-1.372-.351h-.941v2.93zM59.859 86.883h-1.353v-8.888h1.353zM65.739 86.883l-.275-.88h-.039c-.313.391-.607.645-.92.782s-.706.215-1.196.215c-.628 0-1.118-.176-1.45-.508-.354-.332-.53-.8-.53-1.426 0-.645.235-1.133.725-1.465s1.215-.508 2.215-.547l1.097-.039v-.332c0-.41-.097-.703-.274-.899q-.294-.293-.882-.293c-.333 0-.627.04-.94.137-.295.098-.589.215-.863.332l-.431-.957a5.2 5.2 0 0 1 2.293-.547q1.205 0 1.823.527c.411.352.607.899.607 1.641v4.259zm-2-.918q.736 0 1.177-.41c.294-.274.45-.645.45-1.153v-.547l-.803.039c-.627.02-1.098.137-1.392.313-.294.195-.43.468-.43.86 0 .273.078.507.254.644.157.175.412.254.745.254M70.952 85.906c.334 0 .647-.059.98-.156v1.016a3 3 0 0 1-.568.156 4.4 4.4 0 0 1-.725.059c-1.274 0-1.92-.665-1.92-2.013V81.59h-.863v-.586l.92-.488.452-1.329h.823v1.407h1.803v1.016h-1.803v3.379c0 .332.078.567.235.723.177.117.392.195.666.195M76.382 81.589h-1.549v5.294h-1.352v-5.294h-1.039v-.625l1.039-.41v-.41c0-.743.176-1.29.529-1.661.353-.352.882-.547 1.607-.547.47 0 .941.078 1.392.234l-.353 1.016a3.4 3.4 0 0 0-.94-.156c-.314 0-.53.098-.667.273-.137.196-.216.47-.216.84v.41h1.549zM83.065 83.718c0 1.035-.274 1.836-.803 2.422-.53.587-1.274.86-2.215.86a3.16 3.16 0 0 1-1.568-.39 2.6 2.6 0 0 1-1.039-1.153 4.05 4.05 0 0 1-.372-1.739c0-1.016.255-1.817.784-2.403.529-.566 1.274-.859 2.234-.859q1.382 0 2.176.879c.529.586.803 1.387.803 2.383m-4.606 0c0 1.465.55 2.188 1.627 2.188 1.078 0 1.607-.723 1.607-2.188 0-1.445-.529-2.168-1.607-2.168-.568 0-.98.195-1.235.566-.274.372-.392.899-.392 1.602M87.828 80.456c.275 0 .49.02.666.059l-.137 1.25c-.196-.04-.392-.078-.588-.078-.529 0-.98.175-1.313.527s-.51.801-.51 1.368v3.3h-1.352v-6.309h1.059l.176 1.114h.078c.216-.371.49-.684.824-.899a2 2 0 0 1 1.097-.332M95.002 86.883h-1.353v-3.888c0-.488-.098-.84-.274-1.074s-.47-.352-.863-.352c-.51 0-.901.176-1.136.508-.236.332-.373.899-.373 1.68v3.145h-1.352v-6.31h1.058l.196.821h.079q.264-.44.764-.703a2.6 2.6 0 0 1 1.098-.254q1.47 0 1.94.996h.098c.196-.312.45-.547.784-.722.333-.176.725-.255 1.176-.255.765 0 1.313.196 1.646.567.353.371.51.957.51 1.739v4.121h-1.352v-3.887c0-.488-.098-.84-.275-1.074-.176-.235-.47-.352-.862-.352-.53 0-.902.156-1.157.488-.235.332-.372.82-.372 1.505v3.3z"/><path fill="#4683ED" d="M60.858 14H39.142a3.86 3.86 0 0 0-3.352 1.934L24.932 34.687a3.86 3.86 0 0 0 0 3.848L35.79 57.288a3.86 3.86 0 0 0 3.352 1.934h21.716a3.86 3.86 0 0 0 3.352-1.934l10.858-18.753a3.86 3.86 0 0 0 0-3.848L64.21 15.934A3.86 3.86 0 0 0 60.858 14"/><path fill="#417BDC" d="M56.664 25.174 51.548 27.4l-2.234-2.227-4.9 1.719-3.96 3.281 2.608 2.599-3.117 1.27-2.058 4.707 2.803 2.794 2.646 6.622L54.41 59.203h6.448a3.86 3.86 0 0 0 3.352-1.934l9.036-15.589z"/><path fill="#FEFFFD" d="m56.35 40.664 1.118-1.914h4.645l1.215-2.07-2.96-5.138h-4.762l-1.53-2.442h-1.273v-1.367h2.175l1.372 2.441h3.215l-2.9-5h-5.979v6.915h2.45l.862 1.367h-3.312v3.321h3.058l1.568-2.403h3.469l.862 1.368h-3.508l-1.607 2.422h-3.842v6.114h4.9l-.862 1.368h-4.038v2.52h5.978l4.665-8.029H58.33l-1.274 1.895h-4.233v-1.368zM49.314 45.646h-4.038l-.862-1.368h4.9v-6.114h-3.842l-1.607-2.422h-3.508l.862-1.368h3.47l1.568 2.403h3.057v-3.32h-3.312l.862-1.368h2.45v-6.915h-5.978l-2.9 5h3.214l1.372-2.441h2.175V29.1h-1.274l-1.529 2.442h-4.762l-2.96 5.137 1.215 2.071h4.645l1.118 1.914h3.528v1.368h-4.234l-1.274-1.895h-2.999l4.665 8.029h5.978z"/></svg>
